!! J.S. Bach "Partita" BWV 1013 for flauto traverso
!! The second endings have been encoded at bars 19 and 46.
!! Dolmetsch suggest a tempo of quarter note equals 84 beats per minute.
!! First movement: Allemande
**kern
*M4/4
=1
16r
16ee
16aa
16gg#
16aa
16ccc
16aa
16ee
16a
16ee
16aa
16gg#
16aa
16ccc
16aa
16ee
=2
16a
16cc
16ee
16ff
16g#
16ff
16ee
16dd
16cc
16ee
16gg#
16aa
16e
16dd
16cc
16b
=3
16a
16cc
16ee
16ff
16g#
16ff
16ee
16dd
16cc
16ee
16gg#
16aa
16e
16dd
16cc
16b
=4
16a
16cc
16g#
16a
16f
16dd
16g#
16a
16e
16cc
16g#
16a
16d
16cc
16b
16a
=5
16g#
16e
16g#
16b
16ee
16gg#
16bb
16ddd
16ff
16ddd
16bb
16gg#
16ee
16dd
16cc
16b
=6
16cc
16a
16cc
16ee
16aa
16ccc
16eee
16ff
16ggn
16bb-
16gg
16ee
16cc
16b-
16a
16g
=7
16a
16f
16a
16cc
16dd
16ff
16aa
16cc
16bn
16g
16b
16dd
16ee
16gg
16bb
16dd
=8
16cc
16a
16cc
16ee
16ff
16aa
16ccc
16ee
16dd
16b
16dd
16ff#
16gg
16bb
16ddd
16ffn
=9
16ee
16gg
16ccc
16bb
16ccc
16eee
16ccc
16gg
16cc
16gg
16ccc
16bb
16ccc
16eee
16ccc
16gg
=10
16cc
16gg
16bb-
16aa
16bb-
16eee
16bb-
16gg
16cc
16gg
16bb-
16aa
16bb-
16eee
16bb-
16gg
=11
16cc#
16gg
16bb-
16aa
16bb-
16eee
16bb-
16gg
16cc#
16gg
16ee
16cc#
16a
16g
16f
16e
=12
16d
16gg
16ff
16ee
16ff
16aa
16ff
16dd
16b
16g#
16b
16dd
16ee
16dd
16cc
16b
=13
16cc
16ee
16aa
16gg#
16aa
16ccc
16aa
16ff#
16dd#
16b
16dd#
16ff#
16bb
16aa
16ggn
16ff#
=14
16gg
16ff#
16ee
16gg
16a
16ee
16gg
16ccc
16ff#
16ee
16ddn
16ff#
16g
16dd
16ff#
16bb
=15
16ee
16dd
16cc
16ee
16f#
16ee
16ff#
16aa
16dd#
16b
16cc
16a
16d#
16cc
16b
16a
=16
16g
16ee
16ffn
16ddn
16g#
16ff
16ee
16dd
16a
16ff#
16ggn
16ee
16a#
16gg
16ff#
16ee
=17
16dd#
16bb
16gg#
16ddn
16cc#
16aa
16ff#
16ccn
16b
16ggn
16ee
16b-
16a
16ffn
16dd#
16a
=18
16g
16ee
16cc
16a
16f#
16cc
16a
16f#
16d#
16f#
16a
16cc
16b
16aa
16gg
16ff#
=19
16gg
32ff#
32ee
16bb
16ccc
8.ff#
16ee
16ee
16b
16cc
16a
16b
16g
16a
16b
=20
16e
16b
16ee
16dd#
16ee
16gg
16ee
16b
16f#
16b
16ee
16dd#
16ee
16gg
16ee
16b
=21
16e
16g
16b
16cc
16d#
16cc
16b
16a
16g
16b
16dd#
16ee
16b
16a
16g
16f#
=22
16e
16g
16b
16cc
16d#
16cc
16b
16a
16g
16b
16dd#
16ee
16b
16aa
16gg
16ff#
=23
16ee
16gg
16dd#
16ee
16bb
16gg#
16ddn
16ee
16cc
16aa
16dd#
16ee
16g#
16ffn
16ee
16ddn
=24
16a
16cc
16g#
16a
16ee
16cc#
16gn
16a
16f
16dd
16g#
16a
16cc#
16bb-
16aa
16ggn
=25
16ff
16a
16dd
16cc#
16dd
16ff
16dd
16a
16d
16a
16dd
16cc#
16dd
16ff
16dd
16a
=26
16d
16a
16ccn
16b
16cc
16ff#
16cc
16a
16d
16a
16cc
16b
16cc
16ff#
16cc
16a
=27
16d
16cc
16ff#
16ee
16dd
16cc
16b
16a
16e
16dd
16cc
16b
16f#
16ee
16dd
16cc
=28
16b
16dd
16gg
16ff#
16gg
16bb
16gg
16dd
16g
16dd
16gg
16ff#
16gg
16bb
16gg
16dd
=29
16g
16dd
16ffn
16ee
16ff
16bb
16ff
16dd
16g
16dd
16ff
16ee
16ff
16bb
16ff
16dd
=30
16g
16ff
16bb
16aa
16gg
16ff
16ee
16dd
16a
16gg
16ff
16ee
16b
16aa
16gg
16ff
=31
16ee
16gg
16ee
16cc
16b-
16a
16b-
16g
16a
16bn
16cc#
16dd
16ee
16ff
16gg
16ee
=32
16ff
16aa
16ff
16dd
16ccn
16b
16cc
16a
16b
16cc#
16dd#
16ee
16ff#
16gg#
16aa
16ff#
=33
16gg#
16bb
16gg#
16ee
16ddn
16ccn
16dd
16b
16cc
16ee
16gg#
16aa
16g#
16ff
16ee
16dd
=34
16a
16cc
16ee
16ff
16e
16dd
16cc
16b-
16f
16a
16cc#
16dd
16a
16gg
16ff
16ee
=35
16dd
16ff
16cc#
16dd
16aa
16ff#
16ccn
16dd
16b
16gg#
16ee
16ffn
16aa
16ff
16cc#
16dd
=36
16g#
16ff
16cc#
16dd
16bb
16aa
16gg#
16ff#
16ee
16dd
16ccn
16b
16a
16g
16f#
16e
=37
16dd
16b
16cc
16ee
16a
16b
16cc
16dd
16ee
16ff#
16gg#
16aa
16bb
16gg#
16aa
16ccc
=38
16dd#
16ff#
16ccc
16bb
16ee
16gg#
16ccc
16bb
16ff#
16aa
16ccc
16bb
16b
16ccc
16bb
16aa
=39
16gg#
16ee
16ffn
16ee
16aa
16ee
16ff
16ee
16bb
16ee
16ff
16ee
16dd
16ff
16ee
16dd
=40
16cc
16a
16cc
16ee
16aa
16ggn
16ff
16ee
16ff
16aa
16ff
16dd
16ddd
16ccc
16bb
16aa
=41
16gg#
16eee
16ccc#
16ggn
16ff#
16ddd
16bb
16ffn
16ee
16cccn
16aa
16ee-
16dd
16bb-
16gg#
16dd
=42
16cc
16aa
16ff
16dd
16b
16ff
16dd
16b
16g#
16b
16dd
16ff
16ee
16dd
16cc
16b
=43
16cc
16ee
16aa
16cc
16b
16a
16e
16gg#
16aa
16a
16gn
16e
16f
16aa
16e
16ggn
=44
16d
16ff
16ee
16cc#
16dd
16bb-
16ccn
16aa
16gg#
16ee
16dd
16bn
16cc
16eee
16b
16ddd
=45
16a
16ccc
16dd
16bb
16ee
16aa
16bb
16gg#
16aa
16e
16a
16cc
16ee
16a
16cc
16ee
16aa
16ee
16aa
16ccc
16eee
16aa
16ccc
16eee
2aaa;
==
*-
